usr/share/icons/biglinux-icons-material/64/applets/osd-sbs-sright.svg

<svg xmlns="http://www.w3.org/2000/svg" viewBox="0 0 64 64">
  <defs
     id="defs3051">
    <style
       type="text/css"
       id="current-color-scheme">
      .ColorScheme-Text {
        color:#232629;
      }
      .ColorScheme-Highlight {
        color:#3daee9;
      }
      </style>
  </defs>
  <path
     style="fill:currentColor;fill-opacity:1;stroke:none" 
     d="M 6 19 L 6 40 L 4 40 L 4 42.193359 C 4 43.194134 4.8058664 44 5.8066406 44 L 35 44 C 36.000774 44 37 43.000774 37 42 L 37 40 L 35 40 L 35 19 L 33 19 L 8 19 L 6 19 z M 37 19 L 37 21 L 58 21 L 58 23 L 56 23 L 37 23 L 37 24 L 56 24 L 56 42 L 38 42 L 38 44 C 43.506245 43.999819 48.064516 43.999819 58 44 L 58 24 L 60 24 L 60 19 L 58 19 L 37 19 z M 8 21 L 33 21 L 33 39 L 8 39 L 8 21 z "
     class="ColorScheme-Text"
     />
  <path
     style="fill:currentColor;fill-opacity:1;stroke:none" 
     d="M 22.064453 25.935547 L 22 38 L 33 38 L 33 37 L 24 37 L 24 29 L 33 29 L 33 26 L 22.064453 25.935547 z M 37 26 L 37 29 L 44 29 L 44 37 L 37 37 L 37 38 L 46 38 L 46 26 L 37 26 z "
     class="ColorScheme-Highlight"
     />
</svg>

<svg xmlns="http://www.w3.org/2000/svg" viewBox="0 0 64 64"><path d="M6 19v21H4v2.193C4 43.194 4.806 44 5.807 44H35c1 0 2-1 2-2v-2h-2V19H6zm31 0v2h21v2H37v1h19v18H38v2h20V24h2v-5H37zM8 21h25v18H8V21z" style="fill:currentColor;fill-opacity:1;stroke:none;color:#232629"/><path d="M22.064 25.936 22 38h11v-1h-9v-8h9v-3l-10.936-.064zM37 26v3h7v8h-7v1h9V26h-9z" style="fill:currentColor;fill-opacity:1;stroke:none;color:#3daee9"/></svg>
